X: 1
T: The Bohola
R: jig
M: 6/8
L: 1/8
K: Gmaj
BAB G2E|DB,D DEG|GAB AGE|A3 AGA|
BAB G2E|DB,D DEG|GAB AGE|G3 G2A:|
|:BAB d2B|BAB d2B|A3 AGE|ABA AGA|
|1 BAB d2B|BAB d2B|G2B AGE|G3 G2A:|
|2 BAB G2E|DB,D DEG|GAB AGE|G3 G2A||


Tune 414	Setting 23485

